X: 42460
T: Westphalia, The
R: waltz
M: 3/4
K: Gmajor
|:DF|G2 GF GA|B2 B^A Be|d2 de d^c|d2 dD EF|
G2 GF GA|B2 B^A Bc|A2 A^G AB|A2 AE GE|
F2 DA FA|c2 cB cg|f2 f^e fg|f2 fg fe|
[1 d2 dc d2|e2 d2 c2|B2 B^A Bc|B2 B2:|
[2 d2 d2 d2|c2 F2 D2|G2 GF GA|G2 BG Bd||
g2 gG Bg|f2 fF Af|e2 f2 g2|B2 B^A Bc|
B2 A2 G2|B2 A2 G2|c2 cB cd|c2 cD FA|
e2 e2 e2|e2 e2 eA|e2 f2 g2|f3 A fe|
[1 d2 d^c dA|e2 d2 c2|B2 B^A Bc|B2 BD Gd:|
[2 d2 d2 dA|c2 B2 A2|G2 GF GA|G4||

